icons/op-not-watching-24.svg

<svg width="24" height="24" viewBox="0 0 24 24" fill="none" xmlns="http://www.w3.org/2000/svg">
<path d="M18.8168 5.18241C18.6668 5.03243 18.4633 4.94818 18.2512 4.94818C18.0391 4.94818 17.8356 5.03243 17.6856 5.18241L5.184 17.6856C5.10759 17.7594 5.04665 17.8477 5.00472 17.9453C4.96279 18.0429 4.94072 18.1479 4.9398 18.2541C4.93888 18.3603 4.95912 18.4657 4.99934 18.564C5.03957 18.6623 5.09897 18.7516 5.17408 18.8267C5.2492 18.9018 5.33852 18.9612 5.43684 19.0015C5.53515 19.0417 5.6405 19.0619 5.74672 19.061C5.85294 19.0601 5.95792 19.038 6.05552 18.9961C6.15313 18.9542 6.2414 18.8932 6.3152 18.8168L18.816 6.31361C18.966 6.16359 19.0502 5.96014 19.0502 5.74801C19.0502 5.53588 18.966 5.33243 18.816 5.18241H18.8168ZM6.4864 14.7984L8.5344 12.7504C8.476 12.5045 8.44568 12.2528 8.444 12C8.444 10.0968 10.036 8.55281 12 8.55281C12.2288 8.55281 12.4512 8.57841 12.668 8.61841L13.6304 7.65681C13.0915 7.56753 12.5462 7.52205 12 7.52081C6.752 7.52001 4 11.3848 4 12C4 12.3384 4.8456 13.672 6.4864 14.7976V14.7984ZM17.516 9.20401L15.4664 11.252C15.5216 11.4936 15.5552 11.7424 15.5552 12C15.5552 13.9032 13.964 15.4456 12 15.4456C11.7728 15.4456 11.552 15.42 11.3368 15.3808L10.3736 16.3432C10.8872 16.4264 11.4264 16.4792 12 16.4792C17.248 16.4792 20 12.6128 20 12C20 11.6608 19.1552 10.328 17.516 9.20401Z" fill="black"/>
</svg>

<svg xmlns="http://www.w3.org/2000/svg" width="24" height="24" viewBox="0 0 24 24"><path d="M18.817 5.182a.8.8 0 0 0-1.131 0L5.184 17.686a.802.802 0 0 0 .253 1.316.802.802 0 0 0 .878-.185L18.816 6.314a.8.8 0 0 0 0-1.132h.001ZM6.486 14.798l2.048-2.048a3.374 3.374 0 0 1-.09-.75c0-1.903 1.592-3.447 3.556-3.447.229 0 .451.025.668.065l.962-.961A10.119 10.119 0 0 0 12 7.521C6.752 7.52 4 11.385 4 12c0 .338.846 1.672 2.486 2.798Zm11.03-5.594-2.05 2.048a3.3 3.3 0 0 1 .089.748c0 1.903-1.591 3.446-3.555 3.446-.227 0-.448-.026-.663-.065l-.963.962c.513.083 1.052.136 1.626.136 5.248 0 8-3.866 8-4.479 0-.339-.845-1.672-2.484-2.796Z"/></svg>
